X:59
T:Tom and Jerry. RHu.059
T:Donkey Riding,aka. RHu.059
S:R.Hughes MS,1823,Whitchurch,Shrops.
A:Whitchurch, Shropshire
Z:Neil Brookes 2006
M:2/4
L:1/8
Q:1/4=140
R:Country Dance
K:G
G>ABB|cAB2|BAAG|BAAB|G>ABB|cABd|ge e/d/e/f/|ge dB::!
egde|BGB2|BAAG|BABd|egde|d/c/B/A/ Bd|g>e e/d/e/f/|ge dB:|

